icons/svg/plus-circle-outline.svg

﻿<?xml version="1.0" encoding="utf-8"?>
<!DOCTYPE svg PUBLIC "-//W3C//DTD SVG 1.1//EN" "http://www.w3.org/Graphics/SVG/1.1/DTD/svg11.dtd">
<svg xmlns="http://www.w3.org/2000/svg" xmlns:xlink="http://www.w3.org/1999/xlink" version="1.1" baseProfile="full" width="24" height="24" viewBox="0 0 24.00 24.00" enable-background="new 0 0 24.00 24.00" xml:space="preserve">
	<path fill="#000000" fill-opacity="1" stroke-width="0.2" stroke-linejoin="round" d="M 11.9994,19.998C 7.5884,19.998 3.9994,16.4091 3.9994,11.998C 3.9994,7.58704 7.5884,3.99805 11.9994,3.99805C 16.4104,3.99805 19.9994,7.58704 19.9994,11.998C 19.9994,16.4091 16.4104,19.998 11.9994,19.998 Z M 11.9994,1.99805C 6.4764,1.99805 1.9994,6.47504 1.9994,11.998C 1.9994,17.5211 6.4764,21.998 11.9994,21.998C 17.5224,21.998 21.9994,17.5211 21.9994,11.998C 21.9994,6.47504 17.5224,1.99805 11.9994,1.99805 Z M 12.9994,6.99805L 10.9994,6.99805L 10.9994,10.998L 6.9994,10.998L 6.9994,12.998L 10.9994,12.998L 10.9994,16.998L 12.9994,16.998L 12.9994,12.998L 16.9994,12.998L 16.9994,10.998L 12.9994,10.998L 12.9994,6.99805 Z "/>
</svg>

<svg xmlns="http://www.w3.org/2000/svg" version="1.1" baseProfile="full" width="24" height="24" viewBox="0 0 24.00 24.00" xml:space="preserve"><path fill="#000" fill-opacity="1" stroke-width=".2" stroke-linejoin="round" d="M12 19.998c-4.412 0-8-3.59-8-8s3.588-8 8-8c4.41 0 8 3.59 8 8s-3.59 8-8 8zm0-18c-5.524 0-10 4.477-10 10s4.476 10 10 10c5.522 0 10-4.477 10-10s-4.478-10-10-10zm1 5h-2v4H7v2h4v4h2v-4h4v-2h-4v-4z"/></svg>
